src/lib/packages/icons/src/assets/line/shield-bolt.svg

<svg width="24" height="24" viewBox="0 0 24 24" fill="none" xmlns="http://www.w3.org/2000/svg">
<path d="M21.147 4.26487C16.22 3.27987 14.514 2.42005 12.355 1.33005C12.144 1.22505 11.8641 1.23797 11.6531 1.34397C9.46308 2.42997 7.73205 3.28887 2.85205 4.26487C2.50105 4.33487 2.24902 4.64298 2.24902 4.99998V10.8889C2.24902 19.1229 10.173 22.1819 11.762 22.7119C11.839 22.7379 11.919 22.751 11.999 22.751C12.079 22.751 12.1591 22.7379 12.2361 22.7119C13.8251 22.1819 21.749 19.1229 21.749 10.8889V4.99998C21.75 4.64298 21.498 4.33387 21.147 4.26487ZM20.25 10.8889C20.25 17.7539 13.832 20.549 12 21.206C10.168 20.549 3.75 17.7529 3.75 10.8889V5.61301C8.135 4.69701 9.93789 3.86609 12.0149 2.83909C13.9679 3.82009 15.827 4.68701 20.25 5.61301V10.8889ZM7.42603 12.8611C7.54703 13.1321 7.81606 13.3059 8.11206 13.3059H10.1389V17C10.1389 17.311 10.3301 17.5889 10.6201 17.6999C10.7071 17.7339 10.7989 17.75 10.8889 17.75C11.0969 17.75 11.301 17.6629 11.447 17.5019L16.447 11.946C16.645 11.726 16.695 11.4089 16.575 11.1389C16.454 10.8679 16.1849 10.6941 15.8889 10.6941H13.8621V6.99998C13.8621 6.68898 13.6711 6.41103 13.3811 6.30002C13.0911 6.18802 12.7629 6.26702 12.5549 6.49802L7.55493 12.0539C7.35493 12.2739 7.30603 12.5901 7.42603 12.8611ZM12.3611 8.95505V11.445C12.3611 11.859 12.6971 12.195 13.1111 12.195H14.2051L11.6389 15.0459V12.5559C11.6389 12.1419 11.3029 11.8059 10.8889 11.8059H9.79492L12.3611 8.95505Z" fill="currentColor"/>
</svg>

<svg xmlns="http://www.w3.org/2000/svg" width="24" height="24" fill="none"><path fill="currentColor" d="M21.147 4.265C16.22 3.28 14.514 2.42 12.355 1.33a.818.818 0 0 0-.702.014c-2.19 1.086-3.921 1.945-8.8 2.92A.75.75 0 0 0 2.248 5v5.889c0 8.234 7.924 11.293 9.513 11.823a.74.74 0 0 0 .474 0c1.59-.53 9.513-3.59 9.513-11.823V5a.747.747 0 0 0-.602-.735Zm-.897 6.624c0 6.865-6.418 9.66-8.25 10.317-1.832-.657-8.25-3.453-8.25-10.317V5.613c4.385-.916 6.188-1.747 8.265-2.774 1.953.981 3.812 1.848 8.235 2.774v5.276ZM7.426 12.86c.121.271.39.445.686.445h2.027V17a.749.749 0 0 0 1.308.502l5-5.556a.752.752 0 0 0-.558-1.252h-2.027V7a.749.749 0 0 0-1.307-.502l-5 5.556a.748.748 0 0 0-.129.807Zm4.935-3.906v2.49c0 .414.336.75.75.75h1.094l-2.566 2.85v-2.49a.75.75 0 0 0-.75-.75H9.795l2.566-2.85Z"/></svg>
